!!!ONB: MCCC : ILB0164_01 : Extracted Monophonic Melody
!!!COM: Beethoven, Ludwig van
!!!OPR: Piano Sonata No.3
!!!OMV: 1
!!!SCT: Op.2 No.3
!!!ODT: 1794///
**kern
*thru
*staff1
*Ipiano
*clefG2
*k[]
*C:
*M4/4
*>A
=1
2e
16d
16e
16d
16e
8f
8e
=2
4d
4g
2r
=3
2f
16e
16f
16e
16f
8g
8f
=4
4e
4cc
2r
=5
2cc
16b
16cc
16b
16cc
8dd
8b
=6
4g
4cc
16b
16cc
16b
16cc
8dd
8b
=7
4g
4cc
2d
=8
4d
4g
4e
4r
=9
4r
2g
4f
=10
4e
2g
4f
=11
4e
4r
4a
4r
=12
4g
4r
4r
4r
=13
16c
16e
16g
16cc
16e
16ee
16e
16ee
16e
16g
16cc
16ee
16g
16gg
16g
16gg
=14
16g
16cc
16ee
16gg
16cc
16ccc
16cc
16ccc
16cc
16ee
16gg
16ccc
16ee
16eee
16ee
16eee
=15
16ee
16eee
16dd
16ddd
16dd
16ddd
16cc
16ccc
16cc
16ccc
16b
16bb
16b
16bb
16a
16aa
=16
16a
16aa
16g
16gg
16g
16gg
16f
16ff
16f
16ff
16e
16ee
16e
16ee
16d
16dd
=17
16c
16e
16g
16cc
16e
16ee
16e
16ee
16e
16g
16cc
16ee
16g
16gg
16g
16gg
=18
16g
16cc
16ee
16gg
16cc
16ccc
16cc
16ccc
16cc
16ee
16gg
16ccc
16ee
16eee
16ee
16eee
=19
16ee
16eee
16dd
16ddd
16dd
16ddd
16cc
16ccc
16b
16bb
16a
16aa
16a
16aa
16g
16gg
=20
16g
16gg
16f
16ff
16f
16ff
16e
16ee
16e
16ee
16d
16dd
16d
16dd
16c
16cc
=21
4b
4r
4r
8.bb
32aa
32bb
=22
4.ccc
32ccc
32bb
32aa
32gg
8ff
8ff
8ee
8ee
=23
4dd
4r
4r
8.ddd
32ccc
32ddd
=24
4.eee
48eee
48ddd
48ccc
48bb
48aa
48gg
8ff
8ff
8ee
8ee
=25
16dd
16gg
16ff#
16ee
16dd
16cc
16b
16a
16g
16g
16f#
16e
16d
16c
16B
16A
=26
4G
4r
2r
=27
4dd
8ee
8ff#
8gg
8aa
8bb-
8dd
=28
8dd
8cc#
8cc#
8cc#
2cc#
=29
8cc
8ff#
8aa
8ff#
8ccc
8aa
8ff#
8cc
=30
8b
8aa-
8gg
8ff
8ee-
8dd
8cc
8b
=31
4dd
2cc
[4b-
=32
4b-]
2a
4gg
=33
8ff
8aa
8bb
8ccc
8ddd
8eee
8fff
8aa
=34
8aa
8gg#
8gg#
8gg#
2gg#
=35
8gg
8aa
8ccc#
8aa
8eee
8ccc#
8aa
8gg
=36
8ff#
8eee-
8ddd
8ccc
8bb-
8aa
8gg
8ff#
=37
4aa
2gg
[4ff
=38
4ff]
2ee
4ddd
=39
4ccc
16aa
16gg
16ff
16ee
16dd
16cc
16b
16a
16g#
16a
16b
16g#
=40
4a
4r
4ff#
4r
=41
4gg
16gg
16ff
16ee-
16dd
16cc
16b-
16a
16g
16f#
16g
16a
16f#
=42
4g
4r
4ccc#
4r
=43
4ddd
16ddd
16ccc#
16bb
16aa
16gg
16ff#
16ee
16dd
16cc#
16dd
16ee
16cc#
=44
4dd
16dd
16cc#
16b
16a
16g
16f#
16e
16d
16c#
16d
16e
16c#
=45
8d
8c#
8d
8e
8f#
8e
8f#
8g
=46
8a
8g#
8a
8b
8dd
8cc
8b
8a
=47
8g
8d
8c#
8d
8g
8d
8b
8d
=48
2dd
4b
4g
=49
8f#
8d
8c#
8d
8f#
8d
8a
8d
=50
2cc
4a
4f#
=51
8g
8d
8c#
8d
8g
8d
8b
8g
=52
8dd
8b
8gg
8dd
8bb
8aa
8gg
8ff#
=53
8ee
8dd
8cc#
8b
8a
8g
8f#
8e
=54
8d
8c#
8d
8e
8d
8c#
8B
8A
=55
4G
4r
2r
=56
8r
8dd
8cc#
8dd
8gg
8dd
8bb
8dd
=57
2ccc
4aa
4ff#
=58
8r
8dd
8cc#
8dd
8ff#
8dd
8aa
8dd
=59
8bb
8gg
8ff#
8gg
8bb
8gg
8ddd
8bb
=60
8fff
8ddd
8bb
8gg
8ff
8dd
8b
8f
=61
16e
16g
16cc
16ee
16g
16gg
16g
16gg
16g
16cc
16ee
16gg
16cc
16ccc
16cc
16ccc
=62
16cc
16ee
16gg
16ccc
16ee
16eee
16ee
16eee
16ee
16eee
16ccc
16gg
16ee
16cc
16g
16e
=63
16f#
16a
16dd
16ff#
16a
16aa
16a
16aa
16a
16dd
16ff#
16aa
16dd
16ddd
16dd
16ddd
=64
16dd
16ff#
16aa
16ddd
16a
16aa
16a
16aa
16a
16aa
16ff#
16dd
16a
16f#
16d
16A
=65
16B
16d
16g
16b
16d
16dd
16d
16dd
16d
16g
16b
16dd
16g
16gg
16g
16gg
=66
16g
16b
16dd
16gg
16b
16bb
16b
16bb
16b
16dd
16gg
16bb
16dd
16ddd
16dd
16ddd
=67
16dd
16ddd
16cc#
16ccc#
16ee
16eee
16dd
16ddd
16dd
16ddd
16cc#
16ccc#
16ee
16eee
16dd
16ddd
=68
16dd
16ddd
16cc#
16ccc#
16ee
16eee
16dd
16ddd
16dd
16ddd
16cc#
16ccc#
16ee
16eee
16dd
16ddd
=69
4ddd
4ff#
4bb
4dd
=70
4gg
4b
4ee
4g
=71
4cc
4e
4a
4c#
=72
4d
4d
4d
4d
=73
4d
4r
12G
12B
12d
16g
16b
16dd
16gg
=74
4g
4r
12G
12B
12d#
16g
16b
16dd#
16gg
=75
4g
4r
12G
12B
12e
16g
16b
16ee
16gg
=76
4cc
4r
4dd
4r
=77
4g
4r
4c
4c
=78
8c
16B
16c
4A
2f#
=79
4g
4r
4c
4c
=80
8c
16B
16c
4A
2a
=81
4b
4r
4c
4c
=82
8c
16B
16c
4A
8f#
16e
16f#
4d
=83
8b
16a
16b
4g
8ee
16dd#
16ee
4cc#
=84
4dd
4r
4ff#
4r
=85
16g
16gg
16f#
16ff#
16g
16gg
16a
16aa
16b
16bb
16cc
16ccc
16cc#
16ccc#
16dd
16ddd
=86
16ee
16eee
16dd
16ddd
16cc
16ccc
16b
16bb
16a
16aa
16b
16bb
16cc
16ccc
16a
16aa
=87
16g
16gg
16f#
16ff#
16e
16ee
16d
16dd
16c
16cc
16B
16b
16A
16a
16G
16g
=88
16F#
16f#
16E
16e
16D
16d
16C#
16c#
16D
16d
16C
16c
16BB
16B
16AA
16A
=89
4G
4r
4ff#
4r
=90
*>A1
4gg
4r
2r
*>A
=92
2e
16d
16e
16d
16e
8f
8e
=93
4d
4g
2r
=94
2f
16e
16f
16e
16f
8g
8f
=95
4e
4cc
2r
=96
2cc
16b
16cc
16b
16cc
8dd
8b
=97
4g
4cc
16b
16cc
16b
16cc
8dd
8b
=98
4g
4cc
2d
=99
4d
4g
4e
4r
=100
4r
2g
4f
=101
4e
2g
4f
=102
4e
4r
4a
4r
=103
4g
4r
4r
4r
=104
16c
16e
16g
16cc
16e
16ee
16e
16ee
16e
16g
16cc
16ee
16g
16gg
16g
16gg
=105
16g
16cc
16ee
16gg
16cc
16ccc
16cc
16ccc
16cc
16ee
16gg
16ccc
16ee
16eee
16ee
16eee
=106
16ee
16eee
16dd
16ddd
16dd
16ddd
16cc
16ccc
16cc
16ccc
16b
16bb
16b
16bb
16a
16aa
=107
16a
16aa
16g
16gg
16g
16gg
16f
16ff
16f
16ff
16e
16ee
16e
16ee
16d
16dd
=108
16c
16e
16g
16cc
16e
16ee
16e
16ee
16e
16g
16cc
16ee
16g
16gg
16g
16gg
=109
16g
16cc
16ee
16gg
16cc
16ccc
16cc
16ccc
16cc
16ee
16gg
16ccc
16ee
16eee
16ee
16eee
=110
16ee
16eee
16dd
16ddd
16dd
16ddd
16cc
16ccc
16b
16bb
16a
16aa
16a
16aa
16g
16gg
=111
16g
16gg
16f
16ff
16f
16ff
16e
16ee
16e
16ee
16d
16dd
16d
16dd
16c
16cc
=112
4b
4r
4r
8.bb
32aa
32bb
=113
4.ccc
32ccc
32bb
32aa
32gg
8ff
8ff
8ee
8ee
=114
4dd
4r
4r
8.ddd
32ccc
32ddd
=115
4.eee
48eee
48ddd
48ccc
48bb
48aa
48gg
8ff
8ff
8ee
8ee
=116
16dd
16gg
16ff#
16ee
16dd
16cc
16b
16a
16g
16g
16f#
16e
16d
16c
16B
16A
=117
4G
4r
2r
=118
4dd
8ee
8ff#
8gg
8aa
8bb-
8dd
=119
8dd
8cc#
8cc#
8cc#
2cc#
=120
8cc
8ff#
8aa
8ff#
8ccc
8aa
8ff#
8cc
=121
8b
8aa-
8gg
8ff
8ee-
8dd
8cc
8b
=122
4dd
2cc
[4b-
=123
4b-]
2a
4gg
=124
8ff
8aa
8bb
8ccc
8ddd
8eee
8fff
8aa
=125
8aa
8gg#
8gg#
8gg#
2gg#
=126
8gg
8aa
8ccc#
8aa
8eee
8ccc#
8aa
8gg
=127
8ff#
8eee-
8ddd
8ccc
8bb-
8aa
8gg
8ff#
=128
4aa
2gg
[4ff
=129
4ff]
2ee
4ddd
=130
4ccc
16aa
16gg
16ff
16ee
16dd
16cc
16b
16a
16g#
16a
16b
16g#
=131
4a
4r
4ff#
4r
=132
4gg
16gg
16ff
16ee-
16dd
16cc
16b-
16a
16g
16f#
16g
16a
16f#
=133
4g
4r
4ccc#
4r
=134
4ddd
16ddd
16ccc#
16bb
16aa
16gg
16ff#
16ee
16dd
16cc#
16dd
16ee
16cc#
=135
4dd
16dd
16cc#
16b
16a
16g
16f#
16e
16d
16c#
16d
16e
16c#
=136
8d
8c#
8d
8e
8f#
8e
8f#
8g
=137
8a
8g#
8a
8b
8dd
8cc
8b
8a
=138
8g
8d
8c#
8d
8g
8d
8b
8d
=139
2dd
4b
4g
=140
8f#
8d
8c#
8d
8f#
8d
8a
8d
=141
2cc
4a
4f#
=142
8g
8d
8c#
8d
8g
8d
8b
8g
=143
8dd
8b
8gg
8dd
8bb
8aa
8gg
8ff#
=144
8ee
8dd
8cc#
8b
8a
8g
8f#
8e
=145
8d
8c#
8d
8e
8d
8c#
8B
8A
=146
4G
4r
2r
=147
8r
8dd
8cc#
8dd
8gg
8dd
8bb
8dd
=148
2ccc
4aa
4ff#
=149
8r
8dd
8cc#
8dd
8ff#
8dd
8aa
8dd
=150
8bb
8gg
8ff#
8gg
8bb
8gg
8ddd
8bb
=151
8fff
8ddd
8bb
8gg
8ff
8dd
8b
8f
=152
16e
16g
16cc
16ee
16g
16gg
16g
16gg
16g
16cc
16ee
16gg
16cc
16ccc
16cc
16ccc
=153
16cc
16ee
16gg
16ccc
16ee
16eee
16ee
16eee
16ee
16eee
16ccc
16gg
16ee
16cc
16g
16e
=154
16f#
16a
16dd
16ff#
16a
16aa
16a
16aa
16a
16dd
16ff#
16aa
16dd
16ddd
16dd
16ddd
=155
16dd
16ff#
16aa
16ddd
16a
16aa
16a
16aa
16a
16aa
16ff#
16dd
16a
16f#
16d
16A
=156
16B
16d
16g
16b
16d
16dd
16d
16dd
16d
16g
16b
16dd
16g
16gg
16g
16gg
=157
16g
16b
16dd
16gg
16b
16bb
16b
16bb
16b
16dd
16gg
16bb
16dd
16ddd
16dd
16ddd
=158
16dd
16ddd
16cc#
16ccc#
16ee
16eee
16dd
16ddd
16dd
16ddd
16cc#
16ccc#
16ee
16eee
16dd
16ddd
=159
16dd
16ddd
16cc#
16ccc#
16ee
16eee
16dd
16ddd
16dd
16ddd
16cc#
16ccc#
16ee
16eee
16dd
16ddd
=160
4ddd
4ff#
4bb
4dd
=161
4gg
4b
4ee
4g
=162
4cc
4e
4a
4c#
=163
4d
4d
4d
4d
=164
4d
4r
12G
12B
12d
16g
16b
16dd
16gg
=165
4g
4r
12G
12B
12d#
16g
16b
16dd#
16gg
=166
4g
4r
12G
12B
12e
16g
16b
16ee
16gg
=167
4cc
4r
4dd
4r
=168
4g
4r
4c
4c
=169
8c
16B
16c
4A
2f#
=170
4g
4r
4c
4c
=171
8c
16B
16c
4A
2a
=172
4b
4r
4c
4c
=173
8c
16B
16c
4A
8f#
16e
16f#
4d
=174
8b
16a
16b
4g
8ee
16dd#
16ee
4cc#
=175
4dd
4r
4ff#
4r
=176
16g
16gg
16f#
16ff#
16g
16gg
16a
16aa
16b
16bb
16cc
16ccc
16cc#
16ccc#
16dd
16ddd
=177
16ee
16eee
16dd
16ddd
16cc
16ccc
16b
16bb
16a
16aa
16b
16bb
16cc
16ccc
16a
16aa
=178
16g
16gg
16f#
16ff#
16e
16ee
16d
16dd
16c
16cc
16B
16b
16A
16a
16G
16g
=179
16F#
16f#
16E
16e
16D
16d
16C#
16c#
16D
16d
16C
16c
16BB
16B
16AA
16A
=180
4G
4r
4ff#
4r
=181
*>A2
4gg
4r
4d
4d
=182
*>B
8d
16c#
16d
4B
2b
=183
4cc
4r
4g
4g
=184
8g
16f
16g
4e
2ee
=185
4ff
4r
4a-
4a-
=186
8a-
16g
16a-
4f
8dd
16cc
16dd
4b-
=187
8ff
16ee
16ff
4dd
8aa-
16gg
16aa-
4ff
=188
16ff
16ddd
16aa-
16fff
16dd
16aa-
16ff
16ddd
16a-
16ff
16dd
16aa-
16f
16dd
16a-
16ff
=189
16d
16a-
16f
16dd
16A-
16f
16d
16a-
16F
16d
16A-
16f
16A-
16f
16d
16a-
=190
16F
16d
16A-
16f
16A-
16f
16d
16a-
16d
16a-
16f
16dd
16f
16dd
16a-
16ff
=191
16a-
16ff
16dd
16aa-
16dd
16aa-
16ff
16ddd
16ff
16ddd
16aa-
16fff
16dd
16aa-
16ff
16ddd
=192
16ff
16ccc
16aa-
16fff
16cc
16aa-
16ff
16ccc
16a-
16ff
16cc
16aa-
16f
16cc
16a-
16ff
=193
16c
16a-
16f
16cc
16A-
16f
16c
16a-
16F
16c
16A-
16f
16A-
16f
16c
16a-
=194
16E#
16B
16G#
16e#
16G#
16e#
16B
16g#
16B
16g#
16e#
16b
16e#
16b
16g#
16ee#
=195
16g#
16ee#
16b
16gg#
16b
16gg#
16ee#
16bb
16g#
16ee#
16b
16gg#
16b
16gg#
16ee#
16bb
=196
16a
16ff#
16cc#
16aa
16f#
16cc#
16a
16ff#
16c#
16a
16f#
16cc#
16A
16f#
16c#
16a
=197
16F#
16c#
16A
16f#
16A
16f#
16c#
16a
16F#
16c#
16A
16f#
16A
16f#
16c#
16a
=198
16G
16A
16e
16g
16F#
16A
16d#
16f#
16G
16B
16e
16g
16F#
16A
16d#
16f#
=199
16G
16A
16e
16g
16F#
16A
16d#
16f#
16G
16A
16e
16g
16G
16A
16e
16g
=200
2f#
16e
16f#
16e
16f#
8g
8f#
=201
4e
4a
2r
=202
2g
16f#
16g
16f#
16g
8a
8g
=203
4f#
4dd
2r
=204
2dd
16cc
16dd
16cc
16dd
8ee-
8cc
=205
16a
16b-
16a
16b-
8cc
8a
16f#
16g
16f#
16g
8a
8f#
=206
4d
4r
4ee-
4eee-[
=207
4eee-]
4ddd
4cc
4ccc
=208
4bb
4r
16ff
16gg
16ff
16gg
8aa-
8ff
=209
16dd
16ee-
16dd
16ee-
8ff
8dd
16b
16cc
16b
16cc
8dd
8b
=210
4g
4r
4a-
4aa-[
=211
4aa-]
4gg
4ff
4fff
=212
4eee
4r
16bb-
16ccc
16bb-
16ccc
8ddd-
8bb-
=213
16gg
16aa-
16gg
16aa-
8bb-
8gg
16ee
16ff
16ee
16ff
8gg
8ee
=214
4cc
4r
4dd-
4ddd-[
=215
4ddd-]
4ccc
4b-
4bb-[
=216
4bb-]
4aa-
4g
4gg[
=217
4gg]
4ff
4e-
4ee-
=218
4d
4dd
4e
4ee
=219
4f
4ff
4e-
4ee-
=220
4dd
4r
4r
4r
=221
2f#
16f#
16g
16f#
16g
8a
8f#
=222
4g
4b
4r
4r
=223
2a
16a
16b
16a
16b
8cc
8a
=224
4b
4dd
2r
=225
2ff#
16ff#
16gg
16ff#
16gg
8aa
8ff#
=226
2fff
16ddd
16eee
16ddd
16eee
8fff
8ddd
=227
16bb
16ccc
16bb
16ccc
8ddd
8bb
16ff
16gg
16ff
16gg
8aa
8ff
=228
16dd
16ee
16dd
16ee
8ff
8dd
16b
16cc
16b
16cc
8dd
8b
=229
16f
16g
16f
16g
8a
8f
16d
16e
16d
16e
8f
8d
=230
2e
16d
16e
16d
16e
8f
8e
=231
4d
4g
2r
=232
2f
16e
16f
16e
16f
8g
8f
=233
4e
4cc
2r
=234
2cc
16b
16cc
16b
16cc
8dd
8b
=235
4g
4cc
16b
16cc
16b
16cc
8dd
8b
=236
4g
4cc
2d
=237
4d
4g
4e
4r
=238
8r
4ee
4ee
4ff
8ff#[
=239
8ff#]
4gg
8ff
8ff
8ee
8dd
8cc
=240
8r
4aa
4aa
4bb-
8bb[
=241
8bb]
4ccc
8bb-
8bb-
8aa
8gg
8ff
=242
4aa
4ddd
4dd
4bb
=243
4cc#
4aa
4cc
4aa
=244
4b
4gg
4b-
4gg
=245
4a
[4ff
8ff]
8ee
8dd
8cc
=246
4b
4r
4r
8.bb
32aa
32bb
=247
4.ccc
32ccc
32bb
32aa
32gg
8ff
8ff
8ee
8ee
=248
4dd
4r
4r
8.ddd
32ccc
32ddd
=249
4.eee
48eee
48ddd
48ccc
48bb
48aa
48gg
8ff
8ff
8ee
8ee
=250
16dd
16gg
16ff#
16ee
16dd
16cc
16b
16a
16g
16g
16f#
16e
16d
16c
16B
16A
=251
4G
4r
2r
=252
4gg
8aa
8bb
8ccc
8ddd
8eee-
8gg
=253
8gg
8ff#
8ff#
8ff#
2ff#
=254
8ff
8bb
8ddd
8bb
8fff
8ddd
8bb
8ff
=255
8ee
8ddd-
8ccc
8bb-
8aa-
8gg
8ff
8ee
=256
4gg
2ff
[4ee-
=257
4ee-]
2dd
4ccc
=258
8bb-
8dd
8ee
8ff#
8gg
8aa
8bb-
8dd
=259
8dd
8cc#
8cc#
8cc#
2cc#
=260
8cc
8ff#
8aa
8ff#
8ccc
8aa
8ff#
8cc
=261
8b
8aa-
8gg
8ff
8ee-
8dd
8cc
8b
=262
4dd
2cc
[4b-
=263
4b-]
2a
4gg
=264
4ff
16ddd
16ccc
16bb-
16aa
16gg
16ff
16ee
16dd
16cc#
16dd
16ee
16cc#
=265
4dd
4r
4bb
4r
=266
4ccc
16ccc
16bb
16aa-
16gg
16ff
16ee-
16dd
16cc
16b
16cc
16dd
16b
=267
4cc
4r
4ff#
4r
=268
4gg
16gg
16ff#
16ee
16dd
16cc
16b
16a
16g
16f#
16g
16a
16f#
=269
4g
16gg
16ff#
16ee
16dd
16cc
16b
16a
16g
16f#
16g
16a
16f#
=270
8g
8f#
8g
8a
8b
8a#
8b
8cc
=271
8dd
8cc#
8dd
8ee
8gg
8ff
8ee
8dd
=272
8cc
8g
8f#
8g
8cc
8g
8ee
8g
=273
2gg
4ee
4cc
=274
8b
8g
8f#
8g
8b
8g
8dd
8g
=275
2ff
4dd
4b
=276
8cc
8g
8f#
8g
8cc
8g
8ee
8cc
=277
8gg
8ee
8ccc
8gg
8eee
8ddd
8ccc
8bb
=278
8aa
8gg
8ff#
8ee
8dd
8cc
8b
8a
=279
8g
8f#
8g
8a
8g
8f
8e
8d
=280
4c
4r
2r
=281
8r
8gg
8ff#
8gg
8ccc
8gg
8eee
8gg
=282
2fff
4ddd
4bb
=283
8r
8gg
8ff#
8gg
8bb
8gg
8ddd
8gg
=284
8eee
8cc
8b
8cc
8ee
8cc
8gg
8cc
=285
8bb-
8gg
8ee
8cc
8b-
8g
8e
8B-
=286
16A
16c
16f
16a
16c
16cc
16c
16cc
16c
16f
16a
16cc
16f
16ff
16f
16ff
=287
16f
16a
16cc
16ff
16a
16aa
16a
16aa
16a
16aa
16ff
16cc
16a
16f
16c
16A
=288
16B
16d
16g
16b
16d
16dd
16d
16dd
16d
16g
16b
16dd
16g
16gg
16g
16gg
=289
16g
16b
16dd
16gg
16b
16bb
16b
16bb
16b
16bb
16gg
16dd
16b
16g
16d
16B
=290
16c
16e
16g
16cc
16e
16ee
16e
16ee
16e
16g
16cc
16ee
16g
16gg
16g
16gg
=291
16g
16cc
16ee
16gg
16cc
16ccc
16cc
16ccc
16cc
16ee
16gg
16ccc
16ee
16eee
16ee
16eee
=292
16ee
16eee
16dd#
16ddd#
16ff
16fff
16ee
16eee
16ee
16eee
16dd#
16ddd#
16ff
16fff
16ee
16eee
=293
16ee
16eee
16dd#
16ddd#
16ff
16fff
16ee
16eee
16ee
16eee
16dd#
16ddd#
16ff
16fff
16ee
16eee
=294
4eee
4gg
4ccc
4ee
=295
4aa
4cc
4ff
4a
=296
4dd
4f#
4b
4d
=297
4g
4B
4c
4d
=298
4e
4r
12c
12e
12g
16cc
16ee
16gg
16ccc
=299
4cc
4r
12c
12e
12g#
16cc
16ee
16gg#
16ccc
=300
4cc
4r
12c
12e
12a
16cc
16ee
16aa
16ccc
=301
4ff
4r
4gg
4r
=302
4cc
4r
4f
4f
=303
8f
16e
16f
4d
2b
=304
4cc
4r
4f
4f
=305
8f
16e
16f
4d
2dd
=306
4ee
4r
4f
4f
=307
8f
16e
16f
4d
8b
16a
16b
4g
=308
8ff
16ee
16ff
4dd
8bb
16aa
16bb
4gg
=309
2ccc[
8ccc]
8ccc
8eee-
8ccc
=310
8aa-
8ccc
8ee-
8aa-
8cc
8ee-
8a-
8cc
=311
8e-
8a-
8c
8e-
2r
=312
1r
*clefF4
=313
2r
8C
8E-
8A-
8c
=314
8A-
8E-
[4C
2C]
=315
2r
8D-
8E
8G
8d-
=316
8G
8E
[4D-
2D-]
=317
2r
8E-
8F#
8A
8e-
=318
8A
8F#
[4E-
2E-]
=319
4r
12F
12A-
12B
12f
12B
12A-
4F
=320
4r
12G
12B-
12c#
12g
12c#
12B-
4G
=321
4r
12A-
12B
12d
12a-
12d
12B
4A-
=322
4r
12A
12c
12e-
12a
12e-
12c
4A
=323
2g
2r
=324
=325
=326
=327
2dd
2r
=328
2e
16d
16e
16d
16e
8f
8e
=329
4d
4g
2r
=330
2f
16e
16f
16e
16f
8g
8f
=331
4e
4cc
2r
=332
4g
4cc[
4cc]
4b
=333
4g
4cc[
4cc]
4b
=334
4g
4ee[
4ee]
4dd
=335
4cc
4gg[
4gg]
4ff
=336
4ee
4eee
4a
4ddd
=337
4g
4ccc
4f
4bb
=338
8aa
8ee
8gg
8dd
8ff
8cc
8ee
8b
=339
8dd
8a
8cc
8g
8b
8f
8cc
8e
=340
4d
4aa
2r
=341
4B
4gg
2r
=342
4c
4ccc
2r
=343
1r
=344
2r
4a
4aa
=345
2r
4g
4gg
=346
2r
4b
4bb
=347
16c
16cc
16B
16b
16c
16cc
16d
16dd
16e
16ee
16f
16ff
16g
16gg
16a
16aa
=348
16b
16bb
16cc
16ccc
16dd
16ddd
16ee
16eee
16ff
16fff
16ee
16eee
16ff
16fff
16dd
16ddd
=349
16cc
16ccc
16b
16bb
16a
16aa
16g
16gg
16f
16ff
16e
16ee
16d
16dd
16c
16cc
=350
16B
16b
16A
16a
16G
16g
16F#
16f#
16G
16g
16F
16f
16E
16e
16D
16d
=351
4c
4r
4bb
4r
=352
4ccc
4r
2r
==
*-
